teeny/solid/folder-x.svg

<svg width="15" height="15" viewBox="0 0 15 15" fill="none" xmlns="http://www.w3.org/2000/svg">
<path fill-rule="evenodd" clip-rule="evenodd" d="M0 2.5C0 1.67157 0.671573 1 1.5 1H5.70711L7.70711 3H13.5C14.3284 3 15 3.67157 15 4.5V12.5C15 13.3284 14.3284 14 13.5 14H1.5C0.671573 14 0 13.3284 0 12.5V2.5ZM9.14648 10.8536L7.50004 9.20714L5.85359 10.8536L5.14648 10.1465L6.79293 8.50004L5.14648 6.85359L5.85359 6.14648L7.50004 7.79293L9.14648 6.14648L9.85359 6.85359L8.20714 8.50004L9.85359 10.1465L9.14648 10.8536Z" fill="black"/>
</svg>

<svg viewBox="0 0 15 15" xmlns="http://www.w3.org/2000/svg"><path fill-rule="evenodd" d="M0 2.5C0 1.67.67 1 1.5 1h4.2l2 2h5.79c.82 0 1.5.67 1.5 1.5v8c0 .82-.68 1.5-1.5 1.5h-12c-.83 0-1.5-.68-1.5-1.5v-10Zm9.14 8.35L7.49 9.2l-1.65 1.64 -.71-.71 1.64-1.65 -1.65-1.65 .7-.71 1.64 1.64L9.1 6.11l.7.7 -1.65 1.64 1.64 1.64 -.71.7Z"/></svg>
